Yaru++/mimetypes/16/application-x-php.svg

<svg id="svg53" height="16" viewBox="0 0 4.233125 4.233125" width="16" xmlns="http://www.w3.org/2000/svg">
  <path id="path1085" d="m2.0843441.72884218c-.096507.00000832-.1949099.01312-.2951926.0396224-.1002832.0245952-.1872989.060656-.2610992.1079568l.1191872.32068882c.073797-.037845.1409552-.065291.2015052-.082322.060547-.017018.124792-.025483.1929119-.025483.068115 0 .1192176.016043.1532768.048206.035939.032171.054045.070862.054045.11628 0 .05487-.018118.104072-.054045.147592-.035939.041654-.075667.084256-.119184.1277776-.030267.030267-.059624.061515-.088003.093683-.028362.032171-.053934.06721-.07664.1050448-.020784.035939-.037717.075667-.05101.1191872-.0132.041654-.019938.08893-.019938.141912v.062366c.00211.02269.00474.043602.00854.062502h.3745977c-.00211-.011392-.00254-.024637-.00254-.039792v-.034077c0-.032171.00656-.063272.019853-.093547.0132-.032171.029336-.062528.048203-.09091.020784-.028362.043602-.054811.068187-.07941.024595-.026499.048258-.05117.070955-.073869.030267-.030267.06152-.062397.093683-.096456.032171-.034077.060499-.069973.085094-.1078176.024595-.037845.044448-.078579.05959-.122096.017059-.0454.025483-.094614.025483-.1475968 0-.052978-.00936-.1087568-.028277-.1674115-.0170028-.0586514-.0482433-.11267024-.0936732-.16186336-.0454002-.04921008-.1078981-.08979312-.1873708-.12196064-.0775763-.03217168-.17686-.04820256-.2979569-.04820256zm-.8639512.47396592-1.2203929.5137448v.3518659l1.2203929.5137446.1107301-.3434164-.89124642-.3463288.89124642-.3461893zm1.7921993 0-.1105904.3434208.8911111.3461893-.8911111.3463288.1105904.3434164 1.2205328-.5137446v-.3518659zm-.970935 1.0529858c-.06812 0-.129584.022648-.1844584.068043-.052982.0454-.079413.1097952-.079413.1930517 0 .083253.026458.1476384.079413.1930517.054874.0454.1163392.068048.1844584.068048.068115 0 .128704-.022648.1816858-.068048.054874-.0454.082317-.1097984.082317-.1930517 0-.083258-.027474-.1476432-.082317-.1930517-.052982-.0454-.1135712-.068043-.1816858-.068043z" fill="#808080"/>
</svg>

<?xml version="1.0" encoding="UTF-8" standalone="no"?>
<svg
   xmlns:dc="http://purl.org/dc/elements/1.1/"
   xmlns:cc="http://creativecommons.org/ns#"
   xmlns:rdf="http://www.w3.org/1999/02/22-rdf-syntax-ns#"
   xmlns:svg="http://www.w3.org/2000/svg"
   xmlns="http://www.w3.org/2000/svg"
   xmlns:sodipodi="http://sodipodi.sourceforge.net/DTD/sodipodi-0.dtd"
   xmlns:inkscape="http://www.inkscape.org/namespaces/inkscape"
   width="16"
   height="16"
   version="1.1"
   viewBox="0 0 4.233125 4.233125"
   id="svg53"
   sodipodi:docname="application-x-php.svg"
   inkscape:version="0.92.4 (5da689c313, 2019-01-14)">
  <metadata
     id="metadata57">
    <rdf:RDF>
      <cc:Work
         rdf:about="">
        <dc:format>image/svg+xml</dc:format>
        <dc:type
           rdf:resource="http://purl.org/dc/dcmitype/StillImage" />
        <dc:title />
      </cc:Work>
    </rdf:RDF>
  </metadata>
  <sodipodi:namedview
     pagecolor="#ffffff"
     bordercolor="#666666"
     borderopacity="1"
     objecttolerance="10"
     gridtolerance="10"
     guidetolerance="10"
     inkscape:pageopacity="0"
     inkscape:pageshadow="2"
     inkscape:window-width="1568"
     inkscape:window-height="950"
     id="namedview55"
     showgrid="false"
     inkscape:zoom="48.312462"
     inkscape:cx="9.9683749"
     inkscape:cy="8.0000063"
     inkscape:window-x="0"
     inkscape:window-y="27"
     inkscape:window-maximized="0"
     inkscape:current-layer="svg53" />
  <defs
     id="defs17">
    <linearGradient
       id="linearGradient4226"
       x1="529.65503"
       x2="-35.310001"
       y1="401.58401"
       y2="119.093"
       gradientTransform="matrix(0,-0.11988932,0.11988589,0,0.36277965,292.81289)"
       gradientUnits="userSpaceOnUse">
      <stop
         style="stop-color:#f2f2f2"
         offset="0"
         id="stop2" />
      <stop
         style="stop-color:#f9f9f9"
         offset="1"
         id="stop4" />
    </linearGradient>
    <linearGradient
       id="linearGradient4358"
       x1="88"
       x2="488"
       y1="88"
       y2="488"
       gradientUnits="userSpaceOnUse">
      <stop
         style="stop-color:#000000;stop-opacity:.58823532"
         offset="0"
         id="stop7" />
      <stop
         style="stop-color:#000000;stop-opacity:0"
         offset=".88"
         id="stop9" />
      <stop
         style="stop-color:#000000"
         offset="1"
         id="stop11" />
    </linearGradient>
    <filter
       id="filter4346"
       width="1.026"
       height="1.022"
       x="-0.0099999998"
       y="-0.0099999998"
       style="color-interpolation-filters:sRGB">
      <feGaussianBlur
         stdDeviation="2.12"
         id="feGaussianBlur14" />
    </filter>
    <clipPath
       clipPathUnits="userSpaceOnUse"
       id="clipPath983">
      <path
         sodipodi:nodetypes="scccssscsss"
         inkscape:connector-curvature="0"
         id="path985"
         d="m 325.09646,237 c -2.80769,0 -3.10979,0.28839 -3.09603,3.10176 V 244 v 3.89824 c -0.0138,2.81337 0.28834,3.10176 3.09603,3.10176 h 5.8075 C 333.71166,251 334,250.71165 334,247.89824 V 244 240.10176 C 334,237.28836 333.71165,237 330.90396,237 Z"
         style="color:#000000;display:inline;overflow:visible;visibility:visible;opacity:1;fill:#46a926;fill-opacity:1;fill-rule:nonzero;stroke:none;stroke-width:2;stroke-miterlimit:4;stroke-dasharray:none;stroke-opacity:1;marker:none;enable-background:accumulate" />
    </clipPath>
  </defs>
  <path
     style="font-style:normal;font-variant:normal;font-weight:bold;font-stretch:normal;font-size:medium;line-height:1000%;font-family:Ubuntu;-inkscape-font-specification:'Ubuntu Bold';letter-spacing:0px;word-spacing:0px;display:inline;vector-effect:none;fill:#808080;fill-opacity:1;stroke:none;stroke-width:0.42331252px;stroke-linecap:butt;stroke-linejoin:miter;stroke-miterlimit:4;stroke-dasharray:none;stroke-dashoffset:0;stroke-opacity:1;enable-background:new"
     d="m 2.0843441,0.72884218 c -0.096507,8.32e-6 -0.1949099,0.01312 -0.2951926,0.0396224 -0.1002832,0.0245952 -0.1872989,0.060656 -0.2610992,0.1079568 L 1.6472395,1.1971102 c 0.073797,-0.037845 0.1409552,-0.065291 0.2015052,-0.082322 0.060547,-0.017018 0.124792,-0.025483 0.1929119,-0.025483 0.068115,0 0.1192176,0.016043 0.1532768,0.048206 0.035939,0.032171 0.054045,0.070862 0.054045,0.11628 0,0.05487 -0.018118,0.104072 -0.054045,0.147592 -0.035939,0.041654 -0.075667,0.084256 -0.119184,0.1277776 -0.030267,0.030267 -0.059624,0.061515 -0.088003,0.093683 -0.028362,0.032171 -0.053934,0.06721 -0.07664,0.1050448 -0.020784,0.035939 -0.037717,0.075667 -0.05101,0.1191872 -0.0132,0.041654 -0.019938,0.08893 -0.019938,0.141912 v 0.062366 c 0.00211,0.02269 0.00474,0.043602 0.00854,0.062502 h 0.3745977 c -0.00211,-0.011392 -0.00254,-0.024637 -0.00254,-0.039792 v -0.034077 c 0,-0.032171 0.00656,-0.063272 0.019853,-0.093547 0.0132,-0.032171 0.029336,-0.062528 0.048203,-0.09091 0.020784,-0.028362 0.043602,-0.054811 0.068187,-0.07941 0.024595,-0.026499 0.048258,-0.05117 0.070955,-0.073869 0.030267,-0.030267 0.06152,-0.062397 0.093683,-0.096456 0.032171,-0.034077 0.060499,-0.069973 0.085094,-0.1078176 0.024595,-0.037845 0.044448,-0.078579 0.05959,-0.122096 0.017059,-0.0454 0.025483,-0.094614 0.025483,-0.1475968 0,-0.052978 -0.00936,-0.1087568 -0.028277,-0.1674115 C 2.6465243,1.0022215 2.6152838,0.94820266 2.5698539,0.89900954 2.5244537,0.84979946 2.4619558,0.80921642 2.3824831,0.7770489 2.3049068,0.74487722 2.2056231,0.72884634 2.0845262,0.72884634 Z M 1.2203929,1.2028081 0,1.7165529 V 2.0684188 L 1.2203929,2.5821634 1.331123,2.238747 0.43987658,1.8924182 1.331123,1.5462289 Z m 1.7921993,0 L 2.9020018,1.5462289 3.7931129,1.8924182 2.9020018,2.238747 3.0125922,2.5821634 4.233125,2.0684188 V 1.7165529 Z m -0.970935,1.0529858 c -0.06812,0 -0.129584,0.022648 -0.1844584,0.068043 -0.052982,0.0454 -0.079413,0.1097952 -0.079413,0.1930517 0,0.083253 0.026458,0.1476384 0.079413,0.1930517 0.054874,0.0454 0.1163392,0.068048 0.1844584,0.068048 0.068115,0 0.128704,-0.022648 0.1816858,-0.068048 0.054874,-0.0454 0.082317,-0.1097984 0.082317,-0.1930517 0,-0.083258 -0.027474,-0.1476432 -0.082317,-0.1930517 -0.052982,-0.0454 -0.1135712,-0.068043 -0.1816858,-0.068043 z"
     id="path1085"
     inkscape:connector-curvature="0" />
</svg>
